X:546
T:
S:Efter »Florsen» i Burs.
R:vals
O:Gotland, Burs
M:3/4
L:1/8
K:D
(FA)(dF)(AF)|GA B2 B2|(Ac)(eg)(fe)|1 de f2 d2:|2 d4 z2
|:(dA) (df) a2|gagf e2|(cA)(ce) g2|(fg)(fe) d2|
(FA)(dF)(AF)|GA B2 B2|(Ac)(ce) (fe)|d4 z2:|

